X:21
T:Litj-Brekkingen (Pols)
C:\AAsmund Svenkerud
R:Pols
%O:Sweden
Z:Bob Wyttenbach  8/7/02, from Fiddles & Feet 2002 tunebook
N:rhythm here is an approximation; emphasis on 2 is very strong.
M:3/4
L:1/8
K:E %Transposed from D
P:A
((3Bcd)e2fg|e2(dB) Bd|(de) (cA) Ac|cd dB (B2|(3Bcd)e2fg|
e2(dB) Bd|(de) (cA) Ac|[1(cd)B3B-:|[2(cd)B3b-||
P:B
b(g af) fa|(af) (ge) ee|e2(dB) df|(fg) (ge) gb|b(g af) fa|
(af) (ge) ee|e2(dB) ce|[1((3dcd) e3b-:|[2((3dcd)e4|]
